X: 22928
T: Larry O'Gaff's
R: jig
M: 6/8
K: Gmajor
|:G2 G BAG|ded dBG|cec BdB|ABc def|
G2 G BAG|ded dBG|cec BdB|AGA G3:|
|:d2 g gfg|gfg afd|d2 a aga|aga b2 a|
Gba gfe|dge dBG|cec BdB|AGA G3:|

